src/main/resources/icons/RIcons/icons/run/debugCurrent.svg

<svg width="16" height="16" viewBox="0 0 16 16" fill="none" xmlns="http://www.w3.org/2000/svg">
<path fill-rule="evenodd" clip-rule="evenodd" d="M3 3H4V13H3V3Z" fill="#6E6E6E"/>
<rect x="1" y="2" width="2" height="1" fill="#6E6E6E"/>
<rect x="4" y="2" width="2" height="1" fill="#6E6E6E"/>
<rect x="1" y="13" width="2" height="1" fill="#6E6E6E"/>
<rect x="4" y="13" width="2" height="1" fill="#6E6E6E"/>
<path fill-rule="evenodd" clip-rule="evenodd" d="M13.7621 9.19231H14.9999V7.92308H13.7621V7.07692C13.7621 6.96585 13.747 6.85877 13.7318 6.75147C13.7272 6.71899 13.7226 6.68649 13.7184 6.65385H14.9999V5.38462H13.283C12.9436 4.81177 12.443 4.34808 11.8387 4.05277L13.0087 2.89777L12.0993 2L10.3799 3.705C10.3734 3.70466 10.3596 3.70338 10.3444 3.70196C10.3215 3.69982 10.2954 3.69738 10.2856 3.69738C10.2616 3.69738 10.2517 3.69927 10.2411 3.70129C10.2315 3.70311 10.2213 3.70505 10.1999 3.70585L8.47186 2L7.56243 2.89777L8.76672 4.08577C8.18986 4.38277 7.71157 4.83208 7.38415 5.38462H5.57129V6.65385H6.94872C6.94454 6.68648 6.93994 6.71898 6.93534 6.75146C6.92016 6.85877 6.905 6.96585 6.905 7.07692V7.92308H5.57129V9.19231H6.905V9.61538C6.905 9.909 6.95557 10.1891 7.02757 10.4615H5.57129V11.7308H7.68243C8.31157 12.4974 9.26129 13 10.3336 13C11.4059 13 12.3556 12.4974 12.9847 11.7308H14.9999V10.4615H13.6396C13.7116 10.1891 13.7621 9.909 13.7621 9.61538V9.19231ZM8.87127 6.71425H11.6998V7.89283H8.87127V6.71425ZM11.6998 9.07138H8.87127V10.25H11.6998V9.07138Z" fill="#59A869"/>
</svg>

<svg width="16" height="16" viewBox="0 0 16 16" fill="none" xmlns="http://www.w3.org/2000/svg"><rect id="frame" width="16" height="16" fill="none"/><path fill-rule="evenodd" clip-rule="evenodd" d="M3 3h1v10H3V3z" fill="#6E6E6E"/><path fill="#6E6E6E" d="M1 2h2v1H1z"/><path fill="#6E6E6E" d="M4 2h2v1H4z"/><path fill="#6E6E6E" d="M1 13h2v1H1z"/><path fill="#6E6E6E" d="M4 13h2v1H4z"/><path fill-rule="evenodd" clip-rule="evenodd" d="M13.762 9.192H15V7.923h-1.238v-.846c0-.111-.015-.218-.03-.326a7.742 7.742 0 0 1-.014-.097H15v-1.27h-1.717a3.426 3.426 0 0 0-1.444-1.331l1.17-1.155-.91-.898-1.72 1.705-.035-.003-.058-.005c-.024 0-.034.002-.045.004-.01.002-.02.004-.041.005L8.472 2l-.91.898 1.205 1.188a3.427 3.427 0 0 0-1.383 1.299H5.571v1.269H6.95a7.413 7.413 0 0 1-.014.097c-.015.108-.03.215-.03.326v.846H5.571v1.27h1.334v.422c0 .294.05.574.123.846H5.57v1.27h2.111A3.427 3.427 0 0 0 10.334 13a3.427 3.427 0 0 0 2.65-1.27H15v-1.269h-1.36c.072-.272.122-.552.122-.846v-.423zm-4.89-2.478H11.7v1.179H8.87V6.714zM11.7 9.071H8.87v1.179H11.7V9.071z" fill="#59A869"/></svg>
